X:1
T:Ciamar a Theireadh Sibh...?
M:C|
L: 1/8
R:reel
C:T. S. Macdonald
K:D
A/B/c | d2AG FDAF | GFED CEAc | d2AG FDAF |1 ^GABG A2 :|2 GEAF D2 ||
DE    | FD DD/D/ DEFD | GE EE/E/ EFGE | FA AA/A/ ABde | fe^df e2 DE |
        FD DD/D/ DEFD | GE EE/E/ EFAc | d2 AG  FDAF | GEAF  D2 |]

